remix/Map/parking-line.svg

<svg viewBox="0 0 24 24" fill="currentColor" xmlns="http://www.w3.org/2000/svg"><path d="M6 3H13C16.3137 3 19 5.68629 19 9C19 12.3137 16.3137 15 13 15H8V21H6V3ZM8 5V13H13C15.2091 13 17 11.2091 17 9C17 6.79086 15.2091 5 13 5H8Z"/></svg>

<svg viewBox="0 0 24 24" xmlns="http://www.w3.org/2000/svg"><path fill="none" d="M0 0h24v24H0Z"/><path d="M6 3h7v0c3.31 0 6 2.68 6 6 0 3.31-2.69 6-6 6H8v6H6V3Zm2 2v8h5v0c2.2 0 4-1.8 4-4 0-2.21-1.8-4-4-4H8Z"/></svg>
